X: 92
T:Difyrrwch Abertawe
T:The Delights of Swansea
M:6/8
L:1/8
Q:130
S:Cadw Twmpath Collection
R:Jig
A:Wales
Z:brian_martin12345@yahoo.com
K:G
D|Ged dBG|ced dBG|Ggg gfe|edBd2D|Ged dBG|ced dBG|EAA EAG|FDFG2:||
g|bag bag|fddd2f|gfe gfe|^dBBB2G|Adc Bed|cfgd2B|AEF GBd|eafg2:||
K:C
G|f2f def|edc cAG|cBc dcd|egfd2f|edc edc|fed fed|gec AGf|efdc2:||

